X: 4
T: The Humours Of Whiskey
R: slip jig
M: 9/8
L: 1/8
K: Bmin
|:"Em"gfe "Bm"fBB fBB|"Em"gfe "Bm"fBB "F#m"fga|"Em"gfe "Bm"fBB "G"efg| "A"agf efd cBA:|
K:Dmaj
|:"D"d2e fdf "A"ecA|"D"d2e fdd "G"gfe|"D"d2e fdf "G"efg| "A"agf efd cBA:|


Tune 46	Setting 12474

